!!!SOCIAL_FUNCTION:	war songs
!!!PDT:	1939
!!!OTL: No_98_Song_of_the_War_Club.krn
!!!LANG: Non-Tone
!!!LING_GROUP: Wakashan
!!!REG: Pacific Northwest
**kern
*staff1
=1-
*clefF4
*k[f#c#]
*M2/4
4r
8r
16r
16d\
=2!|:
8.e\L
16e\Jk
4e\
=3
8e\L
8d\J
8.d\L
16d\Jk
=4
4..d\
16d\
=5
4d\
8r
16r
16d\
=6
8.d\L
16c#\Jk
4d\
=7
8d\L
8A\J
8.A\L
16A\Jk
=8
4A\
8r
16r
16A\
=9||
*M3/4
4A\
8.d\L
16e\Jk
4d\
=10||
*M2/4
8.d\L
16A\Jk
8.A\L
16A\Jk
=11||
*M3/4
2A\
4r
=12
4A\
8.A\L
16A\Jk
8.A\L
16G#\Jk
=13
=
4A\
4d\
8r
16r
16d\
=14:|!
4A\
4d\
4r
==
*-
